svg/100/outlined/toggle_off.svg

<svg xmlns="http://www.w3.org/2000/svg" width="48" height="48" viewBox="0 -960 960 960"><path d="M280-292q-78.333 0-133.167-54.765Q92-401.529 92-479.765 92-558 146.833-613 201.667-668 280-668h400q78.333 0 133.167 54.765Q868-558.471 868-480.235 868-402 813.167-347 758.333-292 680-292H280Zm0-22h400q69.225 0 117.612-48.341Q846-410.681 846-479.841 846-549 797.612-597.5 749.225-646 680-646H280q-69.225 0-117.613 48.341Q114-549.319 114-480.159 114-411 162.387-362.5 210.775-314 280-314Zm-.059-78Q317-392 342.5-417.324q25.5-25.323 25.5-62.5Q368-517 342.676-542.5 317.353-568 280.294-568t-63.176 25.323Q191-517.353 191-480.176 191-443 216.941-417.5t63 25.5ZM480-480Z"/></svg>

<svg xmlns="http://www.w3.org/2000/svg" width="48" height="48" viewBox="0 -960 960 960"><path d="M280-292q-78.33 0-133.17-54.76Q92-401.53 92-479.76 92-558 146.83-613q54.84-55 133.17-55h400q78.33 0 133.17 54.76 54.83 54.77 54.83 133Q868-402 813.17-347 758.33-292 680-292H280Zm0-22h400q69.22 0 117.61-48.34T846-479.84q0-69.16-48.39-117.66T680-646H280q-69.23 0-117.61 48.34Q114-549.32 114-480.16t48.39 117.66Q210.77-314 280-314Zm-.06-78q37.06 0 62.56-25.32 25.5-25.33 25.5-62.5 0-37.18-25.32-62.68-25.33-25.5-62.39-25.5-37.05 0-63.17 25.32Q191-517.35 191-480.18q0 37.18 25.94 62.68t63 25.5ZM480-480Z"/></svg>
